Newaita-dark/.DP/24/youtube-indicator-light-sync2.svg

<svg xmlns="http://www.w3.org/2000/svg" xmlns:xlink="http://www.w3.org/1999/xlink" width="24px" height="24px" viewBox="0 0 24 24" version="1.1">
<g id="surface1">
<path style=" stroke:none;fill-rule:nonzero;fill:rgb(93.333334%,93.333334%,93.333334%);fill-opacity:1;" d="M 16.222656 15.03125 C 16.070312 15.070312 15.929688 15.171875 15.84375 15.320312 C 15.824219 15.359375 15.804688 15.394531 15.792969 15.4375 C 15.398438 16.179688 15.273438 17.074219 15.507812 17.953125 C 15.742188 18.832031 16.296875 19.539062 17.015625 19.992188 C 17.046875 20.015625 17.078125 20.042969 17.117188 20.0625 C 17.414062 20.234375 17.792969 20.132812 17.964844 19.835938 C 18.136719 19.539062 18.035156 19.164062 17.734375 18.992188 C 17.703125 18.96875 17.664062 18.953125 17.625 18.9375 C 17.179688 18.648438 16.839844 18.195312 16.6875 17.636719 C 16.539062 17.074219 16.609375 16.511719 16.851562 16.039062 C 16.875 16.007812 16.898438 15.976562 16.921875 15.9375 C 17.09375 15.640625 16.992188 15.265625 16.695312 15.09375 C 16.546875 15.007812 16.375 14.988281 16.222656 15.03125 Z M 16.222656 15.03125 "/>
<path style=" stroke:none;fill-rule:nonzero;fill:rgb(93.333334%,93.333334%,93.333334%);fill-opacity:1;" d="M 21.484375 19.082031 C 21.636719 19.039062 21.773438 18.941406 21.859375 18.792969 C 21.882812 18.757812 21.898438 18.71875 21.914062 18.679688 C 22.308594 17.929688 22.4375 17.039062 22.203125 16.160156 C 21.964844 15.28125 21.40625 14.570312 20.691406 14.121094 C 20.660156 14.09375 20.625 14.070312 20.589844 14.046875 C 20.292969 13.875 19.914062 13.976562 19.742188 14.273438 C 19.570312 14.570312 19.671875 14.953125 19.96875 15.125 C 20.007812 15.140625 20.042969 15.160156 20.078125 15.171875 C 20.523438 15.460938 20.867188 15.914062 21.015625 16.476562 C 21.167969 17.039062 21.097656 17.601562 20.859375 18.074219 C 20.832031 18.101562 20.804688 18.136719 20.789062 18.171875 C 20.617188 18.46875 20.71875 18.847656 21.015625 19.019531 C 21.164062 19.105469 21.332031 19.125 21.484375 19.082031 Z M 21.484375 19.082031 "/>
<path style=" stroke:none;fill-rule:nonzero;fill:rgb(93.333334%,93.333334%,93.333334%);fill-opacity:1;" d="M 11.878906 4.363281 C 11.878906 4.363281 5.382812 4.363281 3.757812 4.789062 C 2.882812 5.03125 2.167969 5.75 1.929688 6.636719 C 1.5 8.261719 1.5 11.632812 1.5 11.632812 C 1.5 11.632812 1.5 15.015625 1.929688 16.625 C 2.167969 17.511719 2.867188 18.210938 3.757812 18.453125 C 5.398438 18.898438 11.878906 18.898438 11.878906 18.898438 C 11.878906 18.898438 13.488281 18.898438 15.304688 18.84375 C 15.039062 18.304688 14.882812 17.703125 14.882812 17.054688 C 14.882812 14.859375 16.65625 13.085938 18.851562 13.085938 C 20.210938 13.085938 21.398438 13.757812 22.117188 14.789062 C 22.257812 13.257812 22.257812 11.648438 22.257812 11.648438 C 22.257812 11.648438 22.273438 8.261719 21.828125 6.636719 C 21.59375 5.75 20.890625 5.046875 20 4.808594 C 18.375 4.363281 11.878906 4.363281 11.878906 4.363281 Z M 9.898438 7.828125 C 9.90625 7.828125 9.914062 7.828125 9.921875 7.828125 C 10.007812 7.832031 10.085938 7.855469 10.160156 7.898438 L 15.6875 11.164062 C 16.015625 11.359375 16.015625 11.832031 15.6875 12.023438 L 10.160156 15.289062 C 9.828125 15.488281 9.40625 15.25 9.40625 14.859375 L 9.40625 8.328125 C 9.40625 8.054688 9.625 7.835938 9.898438 7.828125 Z M 9.898438 7.828125 "/>
</g>
</svg>

<svg xmlns="http://www.w3.org/2000/svg" width="24" height="24"><g fill="#bdbdbd"><path d="M16.223 15.031a.619.619 0 0 0-.43.403 3.451 3.451 0 0 0-.285 2.52c.234.878.789 1.589 1.508 2.038a.62.62 0 1 0 .61-1.055 2.246 2.246 0 0 1-.939-1.3 2.255 2.255 0 0 1 .16-1.598.616.616 0 0 0-.156-.945.605.605 0 0 0-.468-.063zm0 0M21.484 19.082c.153-.039.29-.14.375-.289a.75.75 0 0 0 .055-.113c.395-.75.523-1.64.285-2.52a3.444 3.444 0 0 0-1.508-2.039.618.618 0 0 0-.95.156.615.615 0 0 0 .341.895c.441.293.785.742.934 1.305a2.234 2.234 0 0 1-.157 1.597.917.917 0 0 0-.074.098.62.62 0 0 0 .7.91zm0 0"/><path d="M11.879 4.363s-6.496 0-8.121.426c-.871.242-1.59.961-1.832 1.848C1.5 8.262 1.5 11.629 1.5 11.629s0 3.387.426 4.992c.242.89.941 1.594 1.832 1.832 1.64.445 8.12.445 8.12.445s1.61 0 3.427-.054a3.97 3.97 0 0 1-.422-1.79c0-2.199 1.773-3.968 3.969-3.968a3.96 3.96 0 0 1 3.265 1.703c.14-1.531.14-3.14.14-3.14s.016-3.387-.425-5.012A2.607 2.607 0 0 0 20 4.809c-1.625-.446-8.121-.446-8.121-.446zm-1.98 3.465h.023a.499.499 0 0 1 .238.07l5.527 3.266a.498.498 0 0 1 0 .86l-5.527 3.269a.502.502 0 0 1-.754-.434V8.33c0-.274.219-.493.492-.5zm0 0"/></g></svg>
